src/images/satisfied-client.svg

<?xml version="1.0" encoding="UTF-8"?>
<svg width="45px" height="55px" viewBox="0 0 45 55" version="1.1" xmlns="http://www.w3.org/2000/svg" xmlns:xlink="http://www.w3.org/1999/xlink">
    <!-- Generator: Sketch 53 (72520) - https://sketchapp.com -->
    <title>9</title>
    <desc>Created with Sketch.</desc>
    <g id="Marshmello_landing-page" stroke="none" stroke-width="1" fill="none" fill-rule="evenodd">
        <g id="Marshmello_landngpage-Copy" transform="translate(-164.000000, -2476.000000)" fill="#00D663" fill-rule="nonzero">
            <g id="9" transform="translate(164.000000, 2476.000000)">
                <path d="M10.0397825,27.4827635 C10.0397825,28.6685988 10.968102,29.6299396 12.1135153,29.6299396 L32.8864847,29.6299396 C34.031898,29.6299396 34.9602175,28.6685988 34.9602175,27.4827635 C34.9602175,22.7192803 32.4539171,18.5508128 28.734564,16.3163566 C30.5065524,14.5934124 31.6155133,12.1474695 31.6155133,9.43800771 C31.6155133,4.23392747 27.5263716,0 22.5,0 C17.4736284,0 13.3844867,4.23392747 13.3844867,9.43800771 C13.3844867,12.1474695 14.4934476,14.5934124 16.265436,16.3163566 C12.5464879,18.5508128 10.0397825,22.7192803 10.0397825,27.4827635 L10.0397825,27.4827635 Z M22.5,4.2943522 C25.2391903,4.2943522 27.4680479,6.60182175 27.4680479,9.43800771 C27.4680479,12.2741937 25.2395953,14.5816632 22.5,14.5816632 C19.7608097,14.5816632 17.5319521,12.2741937 17.5319521,9.43800771 C17.5319521,6.60182175 19.7608097,4.2943522 22.5,4.2943522 Z M22.5,18.8760154 C26.3679976,18.8760154 29.6276462,21.6249212 30.5511053,25.3355873 L14.4488947,25.3355873 C15.3723538,21.6253408 18.6320024,18.8760154 22.5,18.8760154 Z M29.5385404,45.5657042 C30.3481873,46.4040974 30.3481873,47.7636539 29.5385404,48.6024667 L23.9661938,54.37177 C23.9645737,54.3734484 23.9625486,54.3747073 23.9609285,54.3763857 C23.1593822,55.200512 21.8543887,55.2151985 21.0390715,54.3763857 C21.0374514,54.3747073 21.0354263,54.3734484 21.0338062,54.37177 L15.4614596,48.6024667 C14.6518127,47.7636539 14.6518127,46.4040974 15.4614596,45.5657042 C16.2715114,44.7273111 17.5846054,44.7273111 18.3942523,45.5657042 L20.4262673,47.6696599 L20.4262673,35.13992 C20.4262673,33.9540845 21.3545867,32.9927438 22.5,32.9927438 C23.6454133,32.9927438 24.5737327,33.9540845 24.5737327,35.13992 L24.5737327,47.6696599 L26.6057477,45.5657042 C27.4157996,44.7273111 28.7284886,44.7273111 29.5385404,45.5657042 Z M45,38.3470466 L45,46.5060642 C45,47.6658833 44.0895017,48.6532403 42.9250522,48.6532403 L35.0404125,48.6532403 C33.8945942,48.6532403 32.9654648,47.6918995 32.9654648,46.5060642 C32.9654648,45.3202287 33.8945942,44.358888 35.0404125,44.358888 L37.9156916,44.358888 L29.3538486,35.4991115 C28.5433918,34.6607182 28.5433918,33.3011617 29.3538486,32.4627686 C30.1639004,31.6239558 31.4778046,31.6239558 32.2878565,32.4627686 L40.8501044,41.3225451 L40.8501044,38.3474663 C40.8501044,37.1616308 41.7792339,36.2002902 42.9250522,36.2002902 C44.0712756,36.2002902 45,37.1612112 45,38.3470466 Z M12.0345352,46.5060642 C12.0345352,47.6918995 11.1054058,48.6532403 9.95958747,48.6532403 L2.07494782,48.6532403 C0.951000864,48.6532403 0,47.7057469 0,46.5060642 L0,38.3470466 C0,37.1612112 0.929129516,36.1998705 2.07494782,36.1998705 C3.22076613,36.1998705 4.14989565,37.1612112 4.14989565,38.3470466 L4.14989565,41.3225451 L12.7117385,32.4623489 C13.5221954,31.6239558 14.8360996,31.6239558 15.6461514,32.4623489 C16.4566082,33.3011617 16.4566082,34.6607182 15.6461514,35.4991115 L7.08390332,44.358888 L9.95958747,44.358888 C11.1054058,44.358888 12.0345352,45.3202287 12.0345352,46.5060642 L12.0345352,46.5060642 Z" id="Shape"></path>
            </g>
        </g>
    </g>
</svg>

<svg width="45" height="55" xmlns="http://www.w3.org/2000/svg"><path d="M10.04 27.483c0 1.186.928 2.147 2.074 2.147h20.772c1.146 0 2.074-.961 2.074-2.147 0-4.764-2.506-8.932-6.225-11.167a9.57 9.57 0 002.88-6.878C31.616 4.234 27.527 0 22.5 0s-9.116 4.234-9.116 9.438a9.57 9.57 0 002.881 6.878c-3.719 2.235-6.225 6.403-6.225 11.167zM22.5 4.294c2.74 0 4.968 2.308 4.968 5.144 0 2.836-2.228 5.144-4.968 5.144-2.74 0-4.968-2.308-4.968-5.144 0-2.836 2.229-5.144 4.968-5.144zm0 14.582c3.868 0 7.128 2.749 8.051 6.46H14.45c.923-3.71 4.183-6.46 8.051-6.46zm7.039 26.69c.81.838.81 2.198 0 3.036l-5.573 5.77-.005.004a2.023 2.023 0 01-2.922 0l-.005-.004-5.573-5.77a2.202 2.202 0 010-3.036 2.024 2.024 0 012.933 0l2.032 2.104V35.14c0-1.186.929-2.147 2.074-2.147 1.145 0 2.074.961 2.074 2.147v12.53l2.032-2.104a2.024 2.024 0 012.933 0zM45 38.347v8.16c0 1.159-.91 2.146-2.075 2.146H35.04c-1.145 0-2.075-.961-2.075-2.147s.93-2.147 2.075-2.147h2.876l-8.562-8.86a2.2 2.2 0 010-3.036 2.025 2.025 0 012.934 0l8.562 8.86v-2.976c0-1.185.93-2.147 2.075-2.147 1.146 0 2.075.961 2.075 2.147zm-32.965 8.16c0 1.185-.93 2.146-2.075 2.146H2.075C.95 48.653 0 47.706 0 46.506v-8.159C0 37.161.93 36.2 2.075 36.2c1.146 0 2.075.961 2.075 2.147v2.976l8.562-8.86a2.026 2.026 0 012.934 0 2.2 2.2 0 010 3.036l-8.562 8.86H9.96c1.145 0 2.075.961 2.075 2.147z" fill="#00D663" fill-rule="nonzero"/></svg>
